!!!COM: Beethoven, Ludwig van
!!!CDT: 1770///-1827///
!!!OTL: Piano Sonata no. 7 in D major
!!!OPS: 10
!!!ONM: 3
!!!OMV: 4
!!!OMD: Rondo: Allegro
**kern	**kern	**dynam
*staff2	*staff1	*staff1/2
*clefF4	*clefG2	*clefG2
*k[f#c#]	*k[f#c#]	*k[f#c#]
*D:	*D:	*D:
*M4/4	*M4/4	*M4/4
*MM120	*MM120	*MM120
*	*^	*
8D/	(8f#/	8A\ [8d\	p
=1	=1	=1	=1
8BB/L	8g/L	4B\ 4d\]	.
&(8GG/J&)	8b/J)	.	.
4r	4r	4r	.
4r	4r	4r	.
8r	8r	8r	.
8D/	(8f#/	8A\ [8d\	.
=2	=2	=2	=2
8BB/L	8g/L	4B\ 4d\]	.
&(8GG/J&)	8b/J)	.	.
4r	4r	4r	.
4r	4r	4r	.
*clefG2	*	*	*
8r	8r	4r	<
8g/	(8b\	.	.
*	*v	*v	*
=3	=3	=3
*^	*	*
4f#/	4f#\	8a\L	.
.	.	8dd\	.
4g/	4e\	8cc#\	.
.	.	8gg\J	.
4f#/	4d\	8ff#\L	.
.	.	8bb\	.
[4a/	&(4c#\&) [4e\	8aa\	.
.	.	[8eee\J)	f
=4	=4	=4	=4
*	*	*^	*
4a/]	2B\ [2d\ 2e\]	(16eee\LL]	4r	>
.	.	16ddd\	.	.
.	.	16ccc#\	.	.
.	.	16bb\JJ	.	.
[4g#/	.	16aa\LL	4r	.
.	.	16gg#\	.	.
.	.	16ddd\	.	.
.	.	16gg#\JJ)	.	.
[4A;/ 4d;/] 4e;/ &(4g#;/]&)	4r	4bb;\	4r	.
8A/] 8c#/ 8e/ &(8a/&)	4r	8aan;\	8r	p
*clefF4	*clefF4	*	*	*
8D/	.	(8f#/	8A\ [8d\	pp
*v	*v	*	*	*
=5	=5	=5	=5
8BB/L	8g/L	4B\ 4d\]	pp
&(8GG/J&)	8b/J)	.	.
8r	8r	8r	.
8F#\	(8a#/	8c#\ [8f#\	.
8D\L	8b/L	4d\ 4f#\]	.
&(8BB\J&)	8dd/J)	.	.
8r	8r	8r	.
8A\	(8cc#/	8e\ 8an\	.
=6	=6	=6	=6
*^	*	*	*
4.r	8F#\L	8dd/L	4f#\ 4a\	.
.	&(8D\J&)	8ff#/J)	.	.
.	8r	8r	2r	.
(8G/	8GG\	(8b/	.	p
4F#/	2AA\	4d/)	.	.
!	!	!(f#q/	!.	!.
4G/)	.	8.e/L)	4c#\	.
.	.	16d/Jk	.	.
*	*	*v	*v	*
=7	=7	=7	=7
4F#/	4BB\	4d/	.
4r	4r	4r	.
4r	4r	4r	.
*v	*v	*	*
*clefG2	*	*
*^	*	*
8r	4r	8r	.
8a/ 8ccn/	.	8dd#\ (8ff#\	.
=8	=8	=8	=8
*	*	*^	*
&(8g/&) 8b/L	4.r	8ee\ 8gg\L	2.r	.
8e/ 8g/J	.	8gg\ 8bb\J)	.	.
8r	.	8r	.	.
*v	*v	*	*	*
*clefF4	*	*	*
*^	*	*	*
(8G/	8GG\	(8b/	.	p
4F#/	2AA\	4d/)	.	.
!	!	!(f#q/	!.	!.
4G/)	.	8.e/L)	4c#\	.
.	.	16d/Jk	.	.
*v	*v	*	*	*
*	*v	*v	*
=9	=9	=9
16DD/LL	4d/	.
16D/	.	.
16C#/	.	.
16D/JJ	.	.
16E/LL	4r	.
16D/	.	.
16C#/	.	.
16D/JJ	.	.
16BB/LL	4r	.
16D/	.	.
16C#/	.	.
16D/JJ	.	.
16E/LL	[4g\ [4gg\	.
16D/	.	.
16C#/	.	.
16D/JJ	.	.
=10	=10	=10
16AA/LL	8g\] (8gg\L]	.
16D/	.	.
16C#/	8f#'\ 8ff#'\J)	.
16D/JJ	.	.
16E/LL	8g'\ 8gg'\L	.
16D/	.	.
16C#/	8a'\ 8aa'\J	.
16D/JJ	.	.
16GG/LL	8b'\ 8bb'\L	.
16D/	.	.
16C#/	8b'\ 8bb'\J	.
16D/JJ	.	.
16E/LL	8cc#'\ 8ccc#'\L	.
16D/	.	.
16C#/	8dd'\ 8ddd'\J	.
16D/JJ	.	.
=11	=11	=11
16FF#/LL	4dd\ (4ddd\	.
16D/	.	.
16C#/	.	.
16D/JJ	.	.
16E/LL	8a\ 8aa\)	.
16D/	.	.
16C#/	8r	.
16D/JJ	.	.
16BB/LL	4r	.
16D/	.	.
16C#/	.	.
16D/JJ	.	.
16E/LL	[4G/ [4g/	.
16D/	.	.
16C#/	.	.
16D/JJ	.	.
=12	=12	=12
16AA/LL	(8G/] 8g/L]	.
16D/	.	.
16C#/	8F#'/) 8f#'/J	.
16D/JJ	.	.
16E/LL	8G'/ 8g'/L	.
16D/	.	.
16C#/	8A'/ 8a'/J	.
16D/JJ	.	.
16GG/LL	8A#'/ 8a#'/L	.
16D/	.	.
16C#/	8B'/ 8b'/J	.
16D/JJ	.	.
16E/LL	8c#'/ 8cc#'/L	.
16D/	.	.
16C#/	8d'/ 8dd'/J	.
16D/JJ	.	.
=13	=13	=13
*^	*	*
16FF#/LL	2r	4d/ (4dd/	.
16D/	.	.	.
(16C#/	.	.	.
16D/JJ	.	.	.
16E/LL	.	8an/)	.
16D/	.	.	.
16C#/)	.	8r	.
16D/JJ	.	.	.
*v	*v	*	*
*clefG2	*	*
*^	*	*
4r	2B\ [2d\	16r	.
.	.	(16ddd\LL	<
.	.	16ccc#\	.
.	.	16ddd\JJ	.
[4g/	.	16eee\LL	.
.	.	16ddd\	.
.	.	16ccc#\	.
.	.	16ddd\JJ)	.
=14	=14	=14	=14
(8g/L]	2A\ 2d\]	16r	.
.	.	(16ddd\LL	.
8f#/	.	16ccc#\	.
.	.	16ddd\JJ	.
8g/	.	16eee\LL	.
.	.	16ddd\	.
8a/J	.	16ccc#\	.
.	.	16ddd\JJ)	.
8a#/L	2g\	16r	.
.	.	(16ddd\LL	.
8b/	.	16ccc#\	.
.	.	16ddd\JJ	.
8cc#/	.	16eee\LL	.
.	.	16ddd\	.
8dd/J)	.	16ccc#\	.
.	.	16ddd\JJ)	.
=15	=15	=15	=15
(4dd/	2f#\	16r	.
.	.	(16ddd\LL	.
.	.	16ccc#\	.
.	.	16ddd\JJ	.
8an/)	.	16eee\LL	.
.	.	16ddd\	.
8r	.	16ccc#\	.
.	.	16ddd\JJ)	.
16r	2fn\	16r	.
(16a/LL	.	(16aa\LL	f
16g#/	.	16gg#\	.
16a/JJ	.	16aa\JJ	.
16b/LL	.	16bb\LL	.
16a/	.	16aa\	.
16g#/	.	16gg#\	.
16a/JJ)	.	16aa\JJ)	.
*v	*v	*	*
=16	=16	=16
4e/ 4g#/	(16gg#\LL	.
.	16ddd\	.
.	16ccc#\	.
.	16bb\JJ	.
4r	16aa\LL	.
.	16gg#\	.
.	16ff#\	.
.	16ee\JJ)	.
2r	12dd'\L	.
.	12cc#'\	.
.	12b'\J	.
.	12a'/L	.
.	12g#'/	.
.	12f#'/J	.
*clefF4	*	*
=17	=17	=17
8r	[4e/	.
8d\L	.	.
8d\J	(16e/LL]	.
.	16fn/	.
8r	16f#/	.
.	16g/JJ)	.
8r	[4g#/	.
8d\ 8e\L	.	.
8d\ 8e\J	(16g#/LL]	.
.	16a/	.
8r	16a#/)	.
.	16b/JJ	.
=18	=18	=18
8r	16b#\LL	.
.	16cc#\	.
8c#\ 8e\L	16dd\	.
.	16dd#\JJ	<
8c#\ 8e\J	16ee\LL	.
.	16ffn\	.
8r	16ff#\	.
.	16ggn\JJ	.
2r	16gg#\LL	.
.	16aa\	.
.	16aa#\	.
.	16bb\JJ	.
.	16cccn\LL	.
.	16ccc#\	.
.	16ddd\	.
.	16ddd#\JJ	.
=19	=19	=19
8r	[4eee\	.
8D\ 8E\ 8B\L	.	.
8D\ 8E\ 8B\J	16eee\LL]	.
.	(16ddd#\	.
8r	16dddn\	.
.	16ccc#\JJ)	.
8r	[4bb\	.
8D\ 8E\ 8B\L	.	.
8D\ 8E\ 8B\J	(16bb\LL]	.
.	16ccc#\	.
8r	16ddd\	.
.	16gg#\JJ	.
=20	=20	=20
8r	[4aa\)	.
8C#\ 8E\ 8A\L	.	.
8C#\ 8E\ 8A\J	(16aa\LL]	.
.	16bb#\	.
8r	16ccc#\	.
.	16dd#\JJ	.
2r	(16ee\LL)	.
.	16gg#\	.
.	16aa\	.
.	16ee\JJ	.
.	16ddn\LL	.
.	16cc#\	.
.	16b\	.
.	16a\JJ)	.
=21	=21	=21
8r	[4e/	p
8d\L	.	.
8d\J	(16e/LL]	.
.	16fn/	.
8r	16f#/	.
.	16gn/JJ)	.
8r	[4g#/	.
8d\ 8e\L	.	.
8d\ 8e\J	(16g#/LL]	.
.	16a/	.
8r	16a#/	.
.	16b/JJ)	.
=22	=22	=22
8r	(16b#\LL	.
.	16cc#\	.
8c#\ 8e\L	16dd\	.
.	16dd#\JJ	.
8c#\ 8e\J	16ee\LL	.
.	16ffn\	<
8r	16ff#\	.
.	16ggn\JJ	.
2r	16gg#\LL	.
.	16aa\	.
.	16aa#\	.
.	16bb\JJ	.
.	16cccn\LL	.
.	16ccc#\	.
.	16ddd\	.
.	16ddd#\JJ)	.
=23	=23	=23
[1CC# [1AA	(4.eee\	ff
.	16dddn\LL	.
.	16ccc#\JJ	.
.	16bb\LL	.
.	16aa\	.
.	16gg#\	.
.	16aa\JJ	.
.	16ff#\LL	.
.	16ggn\	.
.	16ee\	.
.	16cc#\JJ)	.
=24	=24	=24
*	*^	*
2CC#/_ 2AA/_	[2gn/	2r	.
4.CC#;/] 4.AA;/]	4.g;/]	4.r	.
8D/	8f#/	(8A\ [8d\	p
=25	=25	=25	=25
8BB/L	8g/L	4B\) 4d\]	.
8GG/J	8b/J	.	.
4r	4r	4r	.
4r	4r	4r	.
8r	8r	8r	.
8D/	8f#/	8A\ (8d\	p
=26	=26	=26	=26
*^	*	*	*
8BB/L	2.r	8g/L	4B\) 4d\	.
8GG/J	.	8b/J	.	.
4r	.	4r	2.r	.
4r	.	4r	.	.
*v	*v	*	*	*
*clefG2	*	*	*
*^	*	*	*
8r	8r	8r	.	.
8g/	8g\	(8b\	.	.
*	*	*v	*v	*
=27	=27	=27	=27
4f#/	4f#\	8a\L	<
.	.	8dd\	.
4g/	4e\	8cc#\	.
.	.	8gg\J	.
4f#/	4d\	8ff#\L	.
.	.	8bb\	.
4a/	&(4c#\&) [4e\	8aa\	.
.	.	[8eee\J)	f
=28	=28	=28	=28
*	*	*^	*
4a/	2B\ [2d\ 2e\_	2.r	(16eee\LL]	>
.	.	.	16ddd\	.
.	.	.	16ccc#\	.
.	.	.	16bb\JJ	.
4g#/	.	.	16aa\LL	.
.	.	.	16gg#\	.
.	.	.	16ddd\	.
.	.	.	16gg#\JJ	.
4g#;/	4A\ 4d\] 4e\]	.	4bb;\)	p
8e/ 8a/	8A\ 8c#\	8r	8aan;\	.
*v	*v	*	*	*
*clefF4	*	*	*
*^	*	*	*
8D/	8r	8f#/	(8A\ [8d\	.
*v	*v	*	*	*
=29	=29	=29	=29
8BB/L	8g/L	4B\) 4d\]	pp
8GG/J	8b/J	.	.
8r	8r	8r	.
8F#\	8a#/	(8c#\ [8f#\	<
8D\L	8b/L	4d\) 4f#\]	.
8BB\J	8dd/J	.	.
8r	8r	8r	.
8A\	8cc#/	(8e\ [8an\	.
=30	=30	=30	=30
*^	*	*	*
4.r	8F#\L	8dd/L	4f#\) 4a\]	.
.	8D\J	8ff#/J	.	.
.	8r	8r	2r	.
8G/	8GG\	(8b/	.	p
(4F#/	2AA\	4d/)	.	.
!	!	!f#q/	!.	!.
4G/)	.	8.e/L	4c#\	.
.	.	16d/Jk	.	.
*	*	*v	*v	*
=31	=31	=31	=31
4F#/	4BB\	4d/	.
4r	2.r	4r	.
4r	.	4r	.
*clefG2	*clefG2	*	*
8r	.	8r	.
8a/ 8ccn/	.	8dd#\ (8ff#\	.
=32	=32	=32	=32
*	*	*^	*
&(8g/&) 8b/L	4.r	8ee\ 8gg\L	2.r	.
8e/ 8g/J	.	8gg\ 8bb\J)	.	.
8r	.	8r	.	.
*clefF4	*clefF4	*	*	*
(8G/	8GG\	(8b/	.	.
4F#/	2AA\	4d/)	.	.
!	!	!f#q/	!.	!.
4G/)	.	8.e/L	4c#\	.
.	.	16d/Jk	.	.
=33	=33	=33	=33	=33
[1BB-	4.BBB-\	2r	[2D\ [2Fn\ [2B-\ [2d\	ff
.	(8AAA\	.	.	.
.	8BBB-\L	8r	8D/] 8F/] 8B-/] 8d/]	.
.	8DD\J)	(8fn/L	4.F\	.
.	8r	8d/	.	.
.	(8AAA\	8B-/J)	.	.
=34	=34	=34	=34	=34
2BB-/]	8BBB-\L	8r	8r	.
.	8DD\J)	8dd/L	4.d\	.
.	8r	8b-/	.	.
.	(8AAA\	8fn/J	.	.
4.BB-/	8BBB-\L	8r	8r	.
.	8DD\J)	8ffn/L	4.f\	.
.	8r	8dd/	.	.
(8AA/	8AA\	8b-/J	.	.
*v	*v	*	*	*
*	*v	*v	*
=35	=35	=35
*k[]	*k[]	*k[]
16BB-\LL)	8r	.
16F\	.	.
16D\	4fff\	.
16F\JJ	.	.
16BB-\LL	.	.
16F\	.	.
16D\	16ddd\LL	.
16F\JJ	16bb-\JJ	.
16BB-\LL	8ff'\L	.
16F\	.	.
16D\	8dd'\J	.
16F\JJ	.	.
16BB-\LL	8b-'/L	.
16F\	.	.
16D\	8f'/J	.
16F\JJ	.	.
=36	=36	=36
16C\LL	8d'/L	.
16F\	.	.
16E-\	8B-'/	.
16F\JJ	.	.
16C\LL	8A'/	.
16F\	.	.
16E-\	8a'/J	.
16F\JJ	.	.
16AA\LL	8c'/L	.
16F\	.	.
16C\	8cc'/	.
16F\JJ	.	.
16AA\LL	8e-'/	.
16F\	.	.
16C\	8ee-'/J	.
16F\JJ	.	.
=37	=37	=37
16BB-/LL	8dd'\	.
16D/	.	.
16GG/	4ddd\	.
16D/JJ	.	.
16BB-/LL	.	.
16D/	.	.
16GG/	(16bb-\LL	.
16D/JJ	16gg\JJ)	.
16BB-/LL	8dd'\L	.
16D/	.	.
16GG/	8b-'\J	.
16D/JJ	.	.
16BB-/LL	8g'/L	.
16D/	.	.
16GG/	8d'/J	.
16D/JJ	.	.
=38	=38	=38
16AA/LL	8B-'/L	.
16D/	.	.
16C/	8G'/	.
16D/JJ	.	.
16AA/LL	8F#'/	.
16D/	.	.
16C/	8f#'/J	.
16D/JJ	.	.
16FF#/LL	8A'/L	.
16D/	.	.
16AA/	8a'/	.
16D/JJ	.	.
16FF#/LL	8c'/	.
16D/	.	.
16AA/	8cc'/J	.
16D/JJ	.	.
=39	=39	=39
16GG/LL	8b-'\	.
16BB-/	.	.
16EE-/	4bb-\	.
16BB-/JJ	.	.
16GG/LL	.	.
16BB-/	.	.
16EE-/	(16gg\LL	.
16BB-/JJ	16ee-\JJ)	.
16GG/LL	8b-'/L	.
16BB-/	.	.
16EE-/	8g'/J	.
16BB-/JJ	.	.
16GG/LL	8e-'/L	.
16BB-/	.	.
16EE-/	8B-'/J	.
16BB-/JJ	.	.
=40	=40	=40
16FF/LL	8G'/L	.
16BB-/	.	.
16AA-/	8E-'/	.
16BB-/JJ	.	.
16FF/LL	8D'/	.
16BB-/	.	.
16AA-/	8d'/J	.
16BB-/JJ	.	.
16DD/LL	8F'/L	.
16BB-/	.	.
16FF/	8f'/	.
16BB-/JJ	.	.
16DD/LL	8A-'/	.
16BB-/	.	.
16FF/	8a-'/J	.
16BB-/JJ	.	.
=41	=41	=41
([4EE-/	8r	.
.	([8E-/	.
16EE-/LL]	16E-/LL]	.
16GG/	16G/	.
16BB-/	16B-/	.
16AA-/JJ	16A-/JJ	.
16GG/LL	16G/LL	.
16BB-/	16B-/	.
16E-/	16e-/	.
16D/JJ	16d/JJ	.
16E-/LL	16e-/LL	.
16BB-/	16B-/	.
16G/	16g/)	.
16F/JJ)	16f/JJ	.
=42	=42	=42
(16E-\LL	(16e-/LL	.
16G\	16g/	.
16B-\	16b-/	.
16A-\JJ	16a-/JJ	.
16G\LL	16g\LL	.
16B-\	16b-\	.
16e-\	16ee-\	.
16d\JJ	16dd\JJ	.
*clefG2	*	*
16e-/LL	16ee-\LL	.
16B-/	16b-\	.
16g/	16gg\	.
16f/JJ	16ff\JJ	.
16e-/LL	16ee-\LL	.
16g/	16gg\	.
16b-/	16bb-\	.
16a-/JJ)	16aa-\JJ)	.
=43	=43	=43
16g/LL	(16gg\LL	.
(16e-/	16ee-\	.
16b-/	16bb-\	.
16a-/JJ	16aa-\JJ	.
16g/LL	16gg\LL	.
16e-/	16ee-\	.
16b-/	16bb-\	.
16a-/JJ	16aa-\JJ	.
16g/LL	16gg\LL	.
16e-/	16ee-\	.
16b-/	16bb-\	.
16a-/JJ	16aa-\JJ	.
16g/LL	16gg\LL	.
16e-/	16ee-\	.
16b-/	16bb-\	.
16a-/JJ)	16aa-\JJ)	.
=44	=44	=44
(16g/LL	(16gg\LL	.
16en/	16dd-\	.
16b-/	16ddd-\	.
16a-/JJ	16ccc\JJ	.
16g/LL	16bb\LL	.
16e/	16dd-\	.
16b-/	16ddd-\	.
16a-/JJ	16ccc\JJ	.
16g/LL	16bb\LL	.
16e/	16dd-\	.
16b-/	16ddd-\	.
16a-/JJ	16ccc\JJ	.
16g/LL	16bb\LL	.
16e/	16dd-\	.
16b-/	16ddd-\	.
16a-/JJ)	16ccc\JJ)	.
=45	=45	=45
*	*^	*
[2e/ [2g/	[2bb-\	2.r	pp
4.e;/] 4.g;/]	4.bb-;\]	.	.
.	.	8r	.
*clefF4	*	*	*
8F\	(8an/	8c\ [8f\	pp
=46	=46	=46	=46
8D/L	8b-/L	4d\ 4f\]	.
8BB-/J	8dd/J)	.	.
4r	4r	2r	.
4r	4r	.	.
8r	8r	8r	.
8F\	8a/	(8c\ [8f\	.
=47	=47	=47	=47
8D/L	8b-/L	4d\) 4f\]	.
8BB-/J	8dd/J	.	.
4r	4r	2.r	.
4r	4r	.	.
*clefG2	*	*	*
8r	8r	.	.
8b-/	(8dd\	.	.
*	*v	*v	*
=48	=48	=48
4a/	8cc\L	.
.	8ff\	.
4g/ 4b-/	8ee\	.
.	8bb-\J	.
4f/ 4a/	8aa\	.
.	4dd;\ (4ddd;\)	.
&(4e;/&) 4g;/	.	.
.	8cc#\ 8ccc#\)	.
=49	=49	=49
2r	2r	.
4r	4r	.
*clefF4	*clefF4	*clefF4
8r	8r	.
8BBB-/	(8BB-/	.
=50	=50	=50
8AAA/L	8AA\L	.
8DD/	8D\	.
8CC#/	8C#\	.
8GG/J	8G\J	.
8FF/L	8F\L	.
8BB-/	8B-\	.
8AA/	8A\	.
&(8D/J&)	8d\J)	.
*	*clefG2	*clefG2
=51	=51	=51
8C#\L	(8c#/L	.
8G\	8g/	.
8F\	8f/	.
8B-\J	8b-/J	.
8A\L	8a\L	.
8d\	8dd\	.
8c#\	8cc#\	.
8g\J	8gg\J	.
=52	=52	=52
8f#\L	8ff#\L	.
8A\	8a\	.
8G#\	8g#\	.
8fn\J	8ffn\J	.
8e\L	8ee\L	.
8Gn\	8gn\	.
8F#\	8f#\	.
8e-\J	8ee-\J	.
=53	=53	=53
8d\L	8dd/L	.
8Fn\	8fn/	.
8E\	8e/	.
8c#\J	8cc#/J	.
8E-\L	8e-/L	.
8cn\	8ccn/	.
8D\	8d/	.
8Bn\J	8bn/J	.
=54	=54	=54
8C#\L	8c#/L	.
8B-\	8b-/	.
8Cn\	8cn/	.
8A\J	8a/J	.
8BBn\L	8Bn/L	.
8G#\	8g#/	.
8BB-\	8B-/	.
8D\ &(8Gn\J&)	8d/ 8gn/J)	.
=55	=55	=55
[2AA\ [2E\ [2G\	[2A/ 2d/ [2g/	.
4.AA;\] 4.E;\] 4.G;\]	4.A;/] 4.c#;/ 4.g;/]	.
=	=	=
*k[f#c#]	*k[f#c#]	*k[f#c#]
*	*^	*
8D/	(8f#/	8A\ [8d\	p
=56	=56	=56	=56
8BBn/L	8g/L	4B\ 4d\]	.
&(8GG/J&)	8bn/J)	.	.
4r	4r	2r	.
4r	4r	.	.
8r	8r	8r	.
8D/	(8f#/	8A\ [8d\	.
=57	=57	=57	=57
8BB/L	8g/L	4B\ 4d\]	.
8FF#/	8b/J)	.	.
8GG/	8r	2.r	.
&(8BB/J&)	(8ff#\	.	.
4r	8gg\L	.	.
.	8bb\J)	.	.
8r	8r	.	.
8g\	(8b\	.	<
*	*v	*v	*
=58	=58	=58
8f#\L	8a\L	.
8F#\	8dd\	.
8e\	8cc#\	.
8E\J	8gg\J	.
8d\L	8ff#\L	.
8D\	8bb\	.
8c#\	8aa\	.
&(8C#\J&)	[8eee\J)	.
=59	=59	=59
*^	*^	*
8r	2BB\	4r	(16eee\LL]	f
.	.	.	16ddd\	>
8D/L	.	.	16ccc#\	.
.	.	.	16bb\JJ	.
8E/	.	4r	16aa\LL	.
.	.	.	16gg#\	.
[8G#/J	.	.	16ddd\	.
.	.	.	16gg#\JJ)	.
&(4E;/&) 4G#;/]	4D\	4r	(4bb;\	p
8C#;/ 8E;/ 8A;/	&(8AA\&)	8r	8aan;\)	.
8D/	8r	(8f#/	8A\ 8d\	pp
*v	*v	*	*	*
=60	=60	=60	=60
8BB/L	8g/L	4B\ 4d\	.
8FF#/	8b/J)	.	.
8GG/	2.r	8r	.
&(8BB/J&)	.	(8A#/ 8a#/	<
8r	.	8B/ 8b/L	.
8AA#/	.	8d/) 8dd/J	.
8BB/L	.	8r	.
&(8D/J&)	.	(8c#/ 8cc#/	.
=61	=61	=61	=61
*^	*	*	*
8r	2r	8d/ 8dd/L	2.r	.
(8C#/L	.	8f#/) 8ff#/J	.	.
8D/	.	8r	.	.
8GG/) 8G/J	.	(8b/	.	.
(4F#/	2AA\	4d/)	.	p
!	!	!(f#q/	!.	!.
4G/)	.	8.e/L)	4c#\	.
.	.	16d/Jk	.	.
*	*	*v	*v	*
=62	=62	=62	=62
4F#/	4BB\	4d/	.
4r	2.r	4r	.
4r	.	4r	.
*clefG2	*clefG2	*	*
8r	.	8r	.
8a/ 8ccn/	.	8dd#\ (8ff#\	.
=63	=63	=63	=63
*	*	*^	*
8g/ 8b/L	4.r	8ee\ 8gg\L	2.r	.
&(8e/&) 8g/J	.	8gg\ 8bb\J)	.	.
8r	.	8r	.	.
*clefF4	*clefF4	*	*	*
8G/	8GG\	(8b/	.	p
(4F#/	2AA\	4d/)	.	.
!	!	!(f#q/	!.	!.
4G/)	.	(8.e/L)	4c#\	.
.	.	16d/Jk)	.	.
*v	*v	*	*	*
*	*v	*v	*
=64	=64	=64
16DD/LL	4d/	.
16D/	.	.
16C#/	.	.
16D/JJ	.	.
16E/LL	4r	.
16D/	.	.
16C#/	.	.
16D/JJ	.	.
16BB/LL	4r	.
16D/	.	.
16C#/	.	.
16D/JJ	.	.
16E/LL	[4g\ [4gg\	.
16D/	.	.
16C#/	.	.
16D/JJ	.	.
=65	=65	=65
16AA/LL	8g\] (8gg\L]	.
16D/	.	.
16C#/	8f#\ 8ff#\)	.
16D/JJ	.	.
16E/LL	8g'\ 8gg'\	.
16D/	.	.
16C#/	8a'\ 8aa'\J	.
16D/JJ	.	.
16GG/LL	8b'\ 8bb'\L	.
16D/	.	.
16C#/	8b'\ 8bb'\	.
16D/JJ	.	.
16E/LL	8cc#'\ 8ccc#'\	.
16D/	.	.
16C#/	8dd'\ 8ddd'\J	.
16D/JJ	.	.
=66	=66	=66
16FF#/LL	4dd\ (4ddd\	.
16D/	.	.
16C#/	.	.
16D/JJ	.	.
16E/LL	8a\ 8aa\)	.
16D/	.	.
16C#/	8r	.
16D/JJ	.	.
16BB/LL	4r	.
16D/	.	.
16C#/	.	.
16D/JJ	.	.
16E/LL	[4G/ [4g/	.
16D/	.	.
16C#/	.	.
16D/JJ	.	.
=67	=67	=67
16AA/LL	(8G/] 8g/L]	.
16D/	.	.
16C#/	8F#/) 8f#/J	.
16D/JJ	.	.
16E/LL	8G'/ 8g'/L	.
16D/	.	.
16C#/	8A'/ 8a'/J	.
16D/JJ	.	.
16FF#/LL	8A#'/ 8a#'/L	.
16D/	.	.
16C#/	8B'/ 8b'/J	.
16D/JJ	.	.
16E/LL	8d'/ 8dd'/L	.
16D/	.	.
16C#/	8cn'/ 8ccn'/J	.
16D/JJ	.	.
=68	=68	=68
*^	*	*
4r	4GG\	16B/ 16b/	.
.	.	(16gg\LL	.
.	.	16ff#\	.
.	.	16gg\JJ	.
[2G/	4r	16aa\LL	.
.	.	16gg\	.
.	.	16ff#\	.
.	.	16gg\JJ)	.
.	2E\	16r	.
.	.	(16gg\LL	.
.	.	16ff#\	.
.	.	16gg\JJ	.
4G/] [4cn/	.	16aa\LL	.
.	.	16gg\	.
.	.	16ff#\	.
.	.	16gg\JJ)	.
=69	=69	=69	=69
(8c/L]	2D\	16r	.
.	.	(16gg\LL	.
8B/	.	16ff#\	.
.	.	16gg\JJ	.
8cn/	.	16aa\LL	.
.	.	16gg\	.
8d/J)	.	16ff#\	.
.	.	16gg\JJ)	.
*v	*v	*	*
*clefG2	*	*
*^	*	*
(8d#/L	2r	16r	.
.	.	(16gg\LL	.
8e/	.	16ff#\	.
.	.	16gg\JJ	.
8f#/	.	16aa\LL	.
.	.	16gg\	.
8g/J)	.	16ff#\	.
.	.	16gg\JJ)	.
=70	=70	=70	=70
(4g/	2B\	16r	.
.	.	(16gg\LL	.
.	.	16ff#\	.
.	.	16gg\JJ	.
8dn/)	.	16aa\LL	.
.	.	16gg\	.
8r	.	16ff#\	.
.	.	16gg\JJ)	.
4r	2e\	16r	.
.	.	(16gg\LL	.
.	.	16ff#\	.
.	.	16gg\JJ	.
[4ccn/	.	16aa\LL	.
.	.	16gg\	.
.	.	16ff#\	.
.	.	16gg\JJ)	.
=71	=71	=71	=71
(4cc/]	2d\	(16ff#\LL	.
.	.	16gg\	.
.	.	16aa\	.
.	.	16gg\JJ	.
4b/	.	20ff#\LL	.
.	.	20gg\	.
.	.	20gg#\	.
.	.	20aa\	.
.	.	20aa\JJ	.
4dd/	2g\	20bb#\LL	.
.	.	20cccn\	.
.	.	20ccc\	.
.	.	20ddd\	.
.	.	20ccc#\JJ	.
4ee#/)	.	16eee\LL	.
.	.	16ddd\	.
.	.	16ccc#\)	.
.	.	16bb#\JJ	.
=72	=72	=72	=72
4ff#/	[2f#\	16aa#\LL	.
.	.	16ccc#\	.
.	.	16aa#\	.
.	.	16ff#\JJ	.
8r	.	16ee#\LL	.
.	.	16ff#\	.
(8a#/	.	16ccc#\	.
.	.	16ff#\JJ	.
8b/L	4.f#\]	16ddd\LL	.
.	.	16bb\	.
8dd/J)	.	16ff#\	.
.	.	16ddd\JJ	.
8r	.	16dd\LL	.
.	.	16bb\	.
8e#/	8r	16gg#\	.
.	.	16dd\JJ	.
=73	=73	=73	=73
8f#/L	[2f#\	16aa#\LL	.
.	.	16ff#\	.
8F#/J	.	16cc#\	.
.	.	16ff#\JJ	.
8r	.	16ee#\LL	.
.	.	16ff#\	.
(8a#/	.	16ccc#\	.
.	.	16ff#\JJ	.
8b/L	4.f#\]	16ddd\LL	.
.	.	16bb\	.
8dd/J)	.	16ff#\	.
.	.	16ddd\JJ	.
8r	.	16dd\LL	.
.	.	16bb\	.
(8e#/	8r	16gg#\	.
.	.	16dd\JJ	.
*v	*v	*	*
*clefF4	*	*
=74	=74	=74
8f#\L	8cc#\ 8aa#\	.
8F#\J)	8aa#\ 8ccc#\L	.
8r	8aa#\ 8ccc#\	.
(8E#\	8aa#\ 8ccc#\J	pp
8F#\L	8aa#\ 8ccc#\L	.
8FF#\J)	8aa#\ 8ccc#\	.
8r	8aa#\ 8ccc#\	.
(8EE#/	8aa#\ 8ccc#\J	.
=75	=75	=75
8FF#/L	8aa#\ 8ccc#\L	.
8FFF#/J)	8aa#\ 8ccc#\	.
4r	8aa#\ 8ccc#\	.
.	8aa#\ 8ccc#\J	.
4r	8aa#\ 8ccc#\L	.
.	8aa#\ 8ccc#\	.
*clefG2	*	*
8r	8aa#\ 8ccc#\	.
(8ff#\	8aa#\ 8ccc#\J	.
=76	=76	=76
*	*^	*
8gg\L	8aa/ 8ccc#/L	2r	pp
8ee\J)	8aa#/ 8ccc#/	.	.
8r	8aa#/ 8ccc#/	.	.
(8f#/	8aa#/ 8ccc#/J	.	.
8g/L	8aa#/ 8ccc#/L	4r	.
8e/J)	8aa#/ 8ccc#/	.	.
8r	8aa#/ 8ccc#/	8r	.
*clefF4	*	*	*
(8F#\	8aa#/ 8ccc#/J	8dd#\	.
=77	=77	=77	=77
8G\L	8bb-/ 8ddd-/L	8ee\L	<
8E\J)	8bb-/ 8ddd-/	8gg\J	.
4r	8bb-/ 8ddd-/	4r	.
.	8bb-/ 8ddd-/J	.	.
4r	8bb-/ 8ddd-/L	2r	.
.	8bb-/ 8ddd-/	.	.
*clefG2	*	*	*
8r	8bb-/ 8ddd-/	.	.
(8ee\	8bb-/ 8ddd-/J	.	.
*	*v	*v	*
=78	=78	=78
8ffn\L	8bb-\ 8dddn\L	.
8fn\J)	8bb-\ 8ddd\	.
8r	8bb-\ 8ddd\	.
(8f/	8bb-\ 8ddd\J	.
8g-/L	8gg-\ 8bb-\ 8eee-\L	.
8G-/J)	8gg-\ 8bb-\ 8eee-\	.
8r	8gg-\ 8bb-\ 8eee-\	.
*clefF4	*	*
(8G-\	8gg-\ 8bb-\ 8eee-\J	.
=79	=79	=79
8Gn\L	8ggn\ 8bb-\ 8ccc#\ 8eeen\L	.
8GGn\J)	8gg\ 8bb-\ 8ccc#\ 8eee\	.
8r	8gg\ 8bb-\ 8ccc#\ 8eee\	.
(8GG/	8gg\ 8bb-\ 8ccc#\ 8eee\J	.
8GG#/L	8gg#\ 8bbn\ 8ddd\ 8fffn\L	.
8GGG#/J)	8gg#\ 8bb\ 8ddd\ 8fff\	.
8r	8gg#\ 8bb\ 8ddd\ 8fff\	.
(8GGG#/	8gg#\ 8bb\ 8ddd\ 8fff\J	.
=80	=80	=80
8AAA/L	16ccc#\LL	.
.	16eee\	.
8AA/J)	16ccc#\	.
.	16aa\JJ	.
8r	16fffn\LL	.
.	16ddd\	.
(8GG#/	16fff\	.
.	16ddd\JJ	.
8AA/L	16bbn\LL	.
.	16ddd\	.
8A/J)	16bb\	.
.	16gg#\JJ	.
8r	16ffn\LL	.
.	16gg#\	.
(8GGG#/	16bb\	.
.	16ddd\JJ	.
=81	=81	=81
8AAA/L	16ccc#\LL	.
.	16aa\	.
8AA/J)	16ee\	.
.	16cc#\JJ	.
8r	16ffn\LL	.
.	16dd\	.
(8GG#/	16b\	.
.	16g#\JJ	.
8AA/L	16fn/LL	.
.	16d/	.
8A/J)	16B/	.
.	16G#/JJ	.
8r	16Fn/LL	.
.	16G#/	.
(8GGG#/	16B/	.
.	16d/JJ	.
=82	=82	=82
8AAA/L	16c#/LL	.
.	16A/	.
8AA/J)	16c#/	.
.	16e/JJ	.
8r	16a/LL	.
.	16e/	.
(8GGG#/	16c#/	.
.	16A/JJ	.
8AAA/L	16e/LL	.
.	16c#/	.
8AA/J)	16A/	.
.	16E/JJ	.
*	*clefF4	*clefF4
8r	16c#\LL	.
.	16A\	.
8GGG#/ 8GG#/	16E\	.
.	16C#\JJ	.
*	*clefG2	*clefG2
=83	=83	=83
*	*^	*
[2AAA/ [2AA/	2r	2.r	.
4.AAA/] 4.AA/]	4r	.	.
.	8r	8r	pp
8r	(8f#/	8A\ [8d\	.
=84	=84	=84	=84
4r	8g/L	4B\ 4d\]	.
.	8b/J)	.	.
8r	4r	2r	pp
8D/	.	.	.
8BB/L	4r	.	.
8GG/J	.	.	.
4r	8r	8r	.
.	(8f#/	8A\ [8d\	.
=85	=85	=85	=85
4r	8g/L	4B\ 4d\]	.
.	8b/J)	.	.
8r	4r	2.r	.
16D/LL	.	.	.
16Cn/JJ	.	.	.
16BB/LL	4r	.	.
16AA/J	.	.	.
&(8GG/J&)	.	.	.
4r	8r	.	.
.	(8b\	.	<
*clefG2	*	*	*
*	*v	*v	*
=86	=86	=86
8r	8a'\)	.
(16g/LL	(8dd\L	.
16f#/JJ)	.	.
8e'/L	8cc#'\J)	.
(16f#/L	(8gg\L	.
16e/JJ)	.	.
8d'/L	8ff#'\J)	.
(16e/L	(8bb\L	.
16d/JJ)	.	.
8c#'/L	8aa'\J)	.
(16d/L	[8ee\	f
16c#/JJ)	.	.
=87	=87	=87
*^	*^	*
8r	2B\	2.r	(16ee\LL]	>
.	.	.	16dd\	.
8d/L	.	.	16cc#\	.
.	.	.	16b\JJ	.
8e/	.	.	16a\LL	.
.	.	.	16g#\	.
[8g#/J	.	.	16dd\	.
.	.	.	16g#\JJ)	.
[4A;/ 4d;/ 4e;/ 4g#;/]	2r	.	4b;\	p
8A;/] 8c#;/ 8e;/ 8a;/	.	8r	8an;\	pp
8r	.	[8d/ (8f#/	8A\	.
*v	*v	*	*	*
*clefF4	*	*	*
=88	=88	=88	=88
8r	8g/L	4B\ 4d\]	.
16D/LL	8b/J)	.	.
16Cn/JJ	.	.	.
16BB/LL	8r	2.r	.
16AA/J	.	.	.
&(8GG/J&)	(8A#/ 8a#/	.	<
8r	8B/ 8b/L	.	.
16F#\LL	8d/) 8dd/J	.	.
16E\JJ	.	.	.
16D\LL	8r	.	.
16C#\J	.	.	.
&(8BB\J&)	(8c#/ 8cc#/	.	.
=89	=89	=89	=89
*^	*	*	*
4.r	8r	8d/ 8dd/L	2.r	.
.	(16A\LL	8f#/) 8ff#/J	.	.
.	16G\JJ	.	.	.
.	32F#\LLL	8r	.	.
.	32E\J	.	.	.
.	16D\J	.	.	.
8G/)	8GG\J	(8b/	.	p
(4F#/	2AA\	4d/)	.	.
!	!	!f#q/	!.	!.
4G/)	.	(8.e/L	4c#\	.
.	.	16d/Jk)	.	.
*	*	*v	*v	*
=90	=90	=90	=90
4F#/	4BB\	4d/	.
4r	2.r	4r	.
2r	.	4r	.
.	.	8r	.
.	.	(8ff#\	.
*v	*v	*	*
*clefG2	*	*
=91	=91	=91
*^	*^	*
8r	2r	4r	8ee\ 8gg\L	.
(16b/LL	.	.	8gg\ 8bb\J)	.
16a/JJ	.	.	.	.
*	*	*clefF4	*clefF4	*
16g/LL	.	4r	24r	.
.	.	.	(24B\LL	.
16f#/J)	.	.	.	.
.	.	.	24A\	.
8e'/J	.	.	24G\	.
.	.	.	24F#\	.
.	.	.	24E\JJ	.
*v	*v	*	*	*
*clefF4	*	*	*
*^	*	*	*
(4FF#/	2AAA\	4r	(4D\)	.
4GG/)	.	8F#/L	4C#\	.
.	.	8E/J)	.	.
*v	*v	*	*	*
*	*v	*v	*
=92	=92	=92
16r	4D\	.
16DD/LL	.	.
16FF#/	.	.
16AA/JJ	.	.
16D/LL	8r	.
16DD/	.	.
16Cn/	(8F#\	.
16DD/JJ	.	.
16BB/LL	8G\L	.
16DD/	.	.
16GG/	8B\J)	.
16DD/JJ	.	.
*	*clefG2	*clefG2
16EE/LL	(8d/L	.
16DD/	.	.
16FF#/	8cn/J	.
16DD/JJ	.	.
=93	=93	=93
16GG/LL	8B/L	.
16DD/	.	.
16BB/	8G/J)	.
16DD/JJ	.	.
16F#/LL	8r	.
16FF#/	.	.
16E/	(8A#/	.
16FF#/JJ	.	.
16D/LL	8B/L	.
16FF#/	.	.
16BB/	8d/J)	.
16FF#/JJ	.	.
16GG#/LL	(8f#/L	.
16FF#/	.	.
16AA#/	8e/J	.
16FF#/JJ	.	.
=94	=94	=94
16BB/LL	8d/L	.
16FF#/	.	.
16D/	8B/J)	.
16FF#/JJ	.	.
16An/LL	8r	.
16AAn/	.	.
16G/	(8c#/	.
16AA/JJ	.	.
16F#/LL	8d/L	.
16AA/	.	.
16D/	8f#/J)	.
16AA/JJ	.	.
16BB/LL	8a\ (8aa\L	.
16AA/	.	.
16C#/	8g\ 8gg\J	.
16AA/JJ	.	.
=95	=95	=95
16D/LL	8f#\ 8ff#\L	.
16AA/	.	.
16F#/	8dd\J)	.
16AA/JJ	.	.
16A/LL	8r	.
16AA/	.	.
16G/	(8c#/	.
16AA/JJ	.	.
16F#/LL	8d/L	.
16AA/	.	.
16D/	8f#/J)	.
16AA/JJ	.	.
16BB/LL	8a\ (8aa\L	.
16AA/	.	.
16C#/	8g\ 8gg\J	.
16AA/JJ	.	.
=96	=96	=96
16D/LL	8f#\ 8ff#\L	.
16AA/	.	.
16D/	8dd\J)	.
16AA/JJ	.	.
16D#/LL	8b'\ 8bb'\L	.
16AA/	.	.
16D#/	8a'\ 8aa'\J	.
16AA/JJ	.	.
16E/LL	8g\ (8gg\L	.
16AA/	.	.
16E/	8ee\J)	.
16AA/JJ	.	.
16E#/LL	8cc#'\ 8ccc#'\L	.
16AA/	.	.
16E#/	8b'\ 8bb'\J	.
16AA/JJ	.	.
=97	=97	=97
16F#/LL	8a\ (8aa\L	.
16AA/	.	.
16F#/	8ff#\J)	.
16AA/JJ	.	.
16F#/LL	8dd'\ 8ddd'\L	.
16AA/	.	.
16F#/	8ccn'\ 8cccn'\J	.
16AA/JJ	.	.
16G/LL	8b\ (8bb\L	.
16AA/	.	.
16G/	8gg\J)	.
16AA/JJ	.	.
16G#/LL	8ee'\ 8eee'\L	.
16AA/	.	.
16G#/	8dd'\ 8ddd'\J	.
16AA/JJ	.	.
=98	=98	=98
*^	*	*
(1G	[1AA; [1An;	1dd; 1ddd;	.
=99	=99	=99	=99
.	.	(ccc#q\L	.
.	.	eeeq\	.
.	.	dddq\J	.
.	.	ccc#q\LLL	.
.	.	eeeq\	.
.	.	aaq\	.
.	.	ccc#q\	.
.	.	ggq\	.
.	.	aaq\	.
.	.	eeq\	.
.	.	ggq\	.
.	.	cc#q\	.
.	.	eeq\	.
.	.	aq\	.
.	.	cc#q\	.
.	.	gq\	.
.	.	aq\	.
.	.	eq\)	.
.	.	gq\JJJ	.
2A/_)	2AA\_ [2G\	[2c#/	.
4.A/]	4.AA\] 4.G\]	4.c#/]	.
8r	(8FF#\	8r	.
=100	=100	=100	=100
8r	8GG\L	2r	.
8D/ 8d/L	8BB\J)	.	.
8B/	4r	.	.
&(8G/J&)	.	.	.
2r	4r	2r	.
.	8r	.	.
.	(8F#\	.	.
*v	*v	*	*
=101	=101	=101
8G\L	8r	.
&(8B-\J&))	8d/ 8dd/L	.
4r	8b-/	.
.	8g/J	.
4r	4r	.
8r	8r	.
(8GG\ [8G\	[8B-/ 8d/ [8b-/	.
=102	=102	=102
8Cn\) 8G\]	8B-/] 8e-/ 8b-/]	.
4C\ 4G\	4B-/ 4e-/ 4b-/	.
8C\ (8G\	8B-/ [8e-/ 8b-/	.
8FFn/ 8Fn/)	8A-/ 8e-/] 8a-/	.
4FF/ 4F/	4A-/ 4e-/ 4a-/	.
8FF/ [8F/	[8A-/ 8e-/ [8a-/	.
=103	=103	=103
8BB-/ 8F/]	8A-/] 8d/ 8a-/]	.
4BB-/ 4Fn/	4A-/ 4d/ 4a-/	.
[8BB-/ (8F/	8A-/ [8d/ 8a-/	.
8BB-/] 8En/)	8G/ 8d/] 8g/	.
4BB-/ 4E/	4G/ 4d/ 4g/	.
(8BB-/ [8E/	[8G/ 8d/ 8g/	.
=104	=104	=104
8AAn/) 8E/]	8G/] 8c#/ 8g/	.
4AA/ 4E/	4G/ 4c#/ 4g/	.
[8AA/ (8E/	8G/ 8c#/ 8g/	.
8AA/] 8F#/)	8An/ 8d/ 8f#/	.
4AA/ 4F#/	4A/ 4d/ 4f#/	.
[8AA/ (8F#/	8A/ [8d/ 8f#/	.
=105	=105	=105
8AA/] 8G/)	8Bn/ 8d/] 8e/	.
4AA/ 4G/	4B/ 4d/ 4e/	.
[8AA/ (8G/	8B/ 8d/ 8e/	.
8AA/] 8A/)	8G/ 8c#/ 8e/	.
4AA/ 4A/	4G/ 4c#/ 4e/	.
8AA/ 8A/	8G/ 8c#/ 8e/	.
*	*clefF4	*clefF4
=106	=106	=106
*^	*	*
4r	[1DD [1D	16r	.
.	.	16E\LL	.
.	.	16F#\	.
.	.	16G\JJ	.
8r	.	16G#\LL	.
.	.	16A\	.
(8AA/L	.	16B-\	.
.	.	16Bn\JJ	.
*	*	*clefG2	*clefG2
8BB/	.	16cn/LL	.
.	.	16c#/	.
8GG/J)	.	16d/	.
.	.	16d#/JJ	.
8r	.	16e/LL	.
.	.	16fn/	.
(8GG/	.	16f#/	.
.	.	16g/JJ	.
=107	=107	=107	=107
1DD] 1D]	8AA/L	16g#\LL	.
.	.	16a\	.
.	8FF#/J)	16b-\	.
.	.	16bn\JJ	.
.	8r	16ccn\LL	.
.	.	16cc#\	.
.	(8FF#/L	16dd\	.
.	.	16dd#\JJ	.
.	8GG/	16ee\LL	.
.	.	16ffn\	.
.	8EE/J)	16ff#\	.
.	.	16gg\JJ	.
.	8r	24gg#\LL	.
.	.	24aa\	.
.	.	24bb-\J	.
.	8EE/	24bbn\L	.
.	.	24cccn\	.
.	.	24ccc#\JJ	.
=108	=108	=108	=108
8FF#/L	[1DD [1D	16ddd\LL	.
.	.	16cccn\	.
8CC#/J	.	16bb\	.
.	.	16bb-\JJ	.
8r	.	16aa\LL	.
.	.	16gg#\	.
(8AA/L	.	16ggn\	.
.	.	16ff#\JJ	.
8BBn/	.	16ffn\LL	.
.	.	16ee\	.
8GG/J)	.	16ee-\	.
.	.	16dd\JJ	.
8r	.	16cc#\LL	.
.	.	16ccn\	.
(8GG/	.	16b\	.
.	.	16b-\JJ	.
=109	=109	=109	=109
1DD] 1D]	8AA/L	16a\LL	.
.	.	16g#\	.
.	8FF#/J)	16gn\	.
.	.	16f#\JJ	.
.	8r	16fn\LL	.
.	.	16e\	.
.	(8FF#/L	16e-\	.
.	.	16d\JJ	.
*	*	*clefF4	*clefF4
.	8GG/	16c#\LL	.
.	.	16B\	.
.	8EE/J)	16A\	.
.	.	16G\JJ	.
.	8r	16F#\LL	.
.	.	16En\	.
.	(8EE/	16D\	.
.	.	16C#\JJ	.
*	*	*clefG2	*clefG2
=110	=110	=110	=110
[1D	8FF#\L	8r	.
.	8DD\J)	16F#/LL	.
.	.	16A/JJ	.
.	8r	16d/LL	.
.	.	16f#/	.
.	(8FF#\L	16a/	.
.	.	16d/JJ	.
.	8GG\	16c#/LL	.
.	.	16A/	.
.	8DD\J)	16c#/	.
.	.	16e/JJ	.
.	8r	16g/LL	.
.	.	16a/	.
.	(8GG\	16cc#/	.
.	.	16a/JJ	.
=111	=111	=111	=111
1D_	8FF#\L	16dd/LL	.
.	.	16d/	.
.	8DD\J)	16f#/	.
.	.	16a/JJ	.
.	8r	16dd\LL	.
.	.	16ff#\	.
.	(8FF#\L	16aa\	.
.	.	16dd\JJ	.
.	8GG\	16cc#\LL	.
.	.	16a\	.
.	8DD\J)	16cc#\	.
.	.	16ee\JJ	.
.	8r	16gg\LL	.
.	.	16aa\	.
.	(8GG\	16ccc#\	.
.	.	16aa\JJ	.
=112	=112	=112	=112
4D/]	8FF#\L	16ddd\LL	.
.	.	16aa\	.
.	8DD\J)	16ff#\	.
.	.	16dd\JJ	.
4r	4r	16a/LL	.
.	.	16dd/	.
.	.	16a/	.
.	.	16f#/JJ	.
4r	4r	16d/LL	.
.	.	16A/	.
.	.	16F#/	.
.	.	16A/JJ	.
16D/LL	4r	4r	.
16AA/	.	.	.
16FF#/	.	.	.
16AA/JJ	.	.	.
*v	*v	*	*
=113	=113	=113
4DD/	2r	.
4r	.	.
4r	4r	.
8r	8r	.
==	==	==
*-	*-	*-
!!!ENC: Craig Stuart Sapp
!!!END: 2008/10/29/
